icons/solid/cake.svg

<svg width="24" height="24" viewBox="0 0 24 24" fill="none" xmlns="http://www.w3.org/2000/svg">
<path fill-rule="evenodd" clip-rule="evenodd" d="M16 3C16 3.55228 15.5523 4 15 4C14.4477 4 14 3.55228 14 3C14 2.44772 14.4477 2 15 2C15.5523 2 16 2.44772 16 3ZM10 6C10 5.44772 9.55228 5 9 5C8.44772 5 8 5.44772 8 6V7C6.34315 7 5 8.34315 5 10V11C3.34315 11 2 12.3431 2 14V19C2 20.6569 3.34315 22 5 22H19C20.6569 22 22 20.6569 22 19V14C22 12.3431 20.6569 11 19 11V10C19 8.34315 17.6569 7 16 7V6C16 5.44772 15.5523 5 15 5C14.4477 5 14 5.44772 14 6V7H13V6C13 5.44772 12.5523 5 12 5C11.4477 5 11 5.44772 11 6V7H10V6ZM12 4C12.5523 4 13 3.55228 13 3C13 2.44772 12.5523 2 12 2C11.4477 2 11 2.44772 11 3C11 3.55228 11.4477 4 12 4ZM10 3C10 3.55228 9.55228 4 9 4C8.44772 4 8 3.55228 8 3C8 2.44772 8.44772 2 9 2C9.55228 2 10 2.44772 10 3ZM10 13C10 12.4477 9.55229 12 9 12C8.44772 12 8 12.4477 8 13C8 13.34 7.88978 13.8722 7.58847 14.2907C7.32387 14.6582 6.87408 15 6 15C5.7117 15 5.47633 14.9625 5.28421 14.9055C4.7547 14.7486 4.1982 15.0506 4.04124 15.5801C3.88428 16.1096 4.18628 16.6661 4.71579 16.8231C5.10815 16.9394 5.53637 17 6 17C7.3674 17 8.35279 16.4715 9 15.7266C9.64721 16.4715 10.6326 17 12 17C13.3674 17 14.3528 16.4715 15 15.7266C15.6472 16.4715 16.6326 17 18 17C18.4636 17 18.8919 16.9394 19.2842 16.8231C19.8137 16.6661 20.1157 16.1096 19.9588 15.5801C19.8018 15.0506 19.2453 14.7486 18.7158 14.9055C18.5237 14.9625 18.2883 15 18 15C17.1259 15 16.6761 14.6582 16.4115 14.2907C16.1102 13.8722 16 13.34 16 13C16 12.4477 15.5523 12 15 12C14.4477 12 14 12.4477 14 13C14 13.34 13.8898 13.8722 13.5885 14.2907C13.3239 14.6582 12.8741 15 12 15C11.1259 15 10.6761 14.6582 10.4115 14.2907C10.1102 13.8722 10 13.34 10 13Z" fill="currentColor"/>
</svg>

<svg width="24" height="24" fill="none" xmlns="http://www.w3.org/2000/svg"><path fill-rule="evenodd" clip-rule="evenodd" d="M16 3a1 1 0 11-2 0 1 1 0 012 0zm-6 3a1 1 0 00-2 0v1a3 3 0 00-3 3v1a3 3 0 00-3 3v5a3 3 0 003 3h14a3 3 0 003-3v-5a3 3 0 00-3-3v-1a3 3 0 00-3-3V6a1 1 0 10-2 0v1h-1V6a1 1 0 10-2 0v1h-1V6zm2-2a1 1 0 100-2 1 1 0 000 2zm-2-1a1 1 0 11-2 0 1 1 0 012 0zm0 10a1 1 0 10-2 0c0 .34-.11.872-.412 1.29-.264.368-.714.71-1.588.71-.288 0-.524-.037-.716-.095a1 1 0 00-.568 1.918c.392.116.82.177 1.284.177 1.367 0 2.353-.529 3-1.273.647.744 1.633 1.273 3 1.273s2.353-.529 3-1.273c.647.744 1.633 1.273 3 1.273.464 0 .892-.06 1.284-.177a1 1 0 00-.568-1.918A2.507 2.507 0 0118 15c-.874 0-1.324-.342-1.588-.71A2.355 2.355 0 0116 13a1 1 0 10-2 0c0 .34-.11.872-.412 1.29-.264.368-.714.71-1.588.71-.874 0-1.324-.342-1.588-.71A2.355 2.355 0 0110 13z" fill="currentColor"/></svg>
